X: 26
T: THE LUCKY HIT
B: "Old English Country Dances", Frank Kidson ed., William Reeves pub., London 1890
Z: 2010-9-26 John Chambers <jc:trillian.mit.edu>
M: 6/8
L: 1/8
K: C
G2c B2c | d2e d2G | e2g c2f | d3 z2e |
f2a g2c | B2A G2f | e2z d2z | c3 z2z |]


%%sep 1 1 500

%%sep 1 1 500

